X:1
T:Drunken Drummer. JBut.230, The
T:Drunken Drummer. JBut.230, The
T:A Quick Step
C:A Quick Step
L:1/8
Q:3/8=110
M:6/8
K:G
V:1 treble 
V:1
 d | BAG G2 D | GAG B2 d | BAG G2 D | EFE E2 d | BAG G2 D | GAG Bcd | efg dBG | A2 G"^NB1" G2 :: %9
 A | Bcd ded | ded dec | Bcd def | gdB A2 G | Bcd ded | ded def | gdB dBG | A3"^NB2" G2 :| %18

